packages/ffe-icons/icons/filled/sm/heap_snapshot_multiple.svg

<svg xmlns="http://www.w3.org/2000/svg" height="20" viewBox="0 -960 960 960" width="20"><path d="M431.866-536.001q15.903 0 27.018-10.981t11.115-26.884q0-15.904-10.981-27.019Q448.038-612 432.134-612q-15.903 0-27.018 10.981t-11.115 26.884q0 15.903 10.981 27.018 10.98 11.116 26.884 11.116Zm21.826 169.077 186-186q7.923-7.59 8.115-18.025.192-10.436-8.115-18.744Q631.384-598 621.141-598q-10.243 0-18.217 8.307L416.308-403.077q-7.923 7.559-7.807 17.702.115 10.143 8.423 18.451 8.307 8.307 18.55 8.307 10.244 0 18.218-8.307Zm170.174 22.923q15.903 0 27.018-10.981t11.115-26.884q0-15.904-10.981-27.019Q640.038-420 624.134-420q-15.903 0-27.018 10.981t-11.115 26.884q0 15.903 10.981 27.018 10.98 11.116 26.884 11.116Zm107.825 132H324.309q-26.308 0-45.308-19t-19-45.308v-551.382q0-26.308 19-45.308t45.308-19h282.769q12.854 0 24.504 4.616 11.649 4.615 21.496 14.461l123.844 123.844q9.846 9.847 14.461 21.496 4.616 11.65 4.616 24.504v426.769q0 26.308-19 45.308t-45.308 19Zm12.309-480L596.001-840v105.538q0 17.692 12.385 30.076 12.384 12.385 30.076 12.385H744Zm-563.691 624q-26.308 0-45.308-19t-19-45.308v-493.69q0-11.05 7.419-18.525 7.418-7.475 18.384-7.475 10.966 0 18.581 7.475T168-625.999v493.69q0 4.616 3.846 8.463 3.847 3.846 8.463 3.846h397.69q11.05 0 18.525 7.418 7.475 7.418 7.475 18.384 0 10.966-7.475 18.581Q589.049-68 577.999-68h-397.69Z"/></svg>

<svg xmlns="http://www.w3.org/2000/svg" height="20" viewBox="0 -960 960 960" width="20"><path d="M431.87-536q15.9 0 27.01-10.98Q470-557.96 470-573.87q0-15.9-10.98-27.01Q448.04-612 432.13-612q-15.9 0-27.01 10.98Q394-590.04 394-574.14q0 15.91 10.98 27.02Q415.96-536 431.87-536Zm21.82 169.08 186-186q7.92-7.59 8.12-18.03.19-10.44-8.12-18.74-8.31-8.31-18.55-8.31t-18.22 8.31L416.31-403.08q-7.92 7.56-7.81 17.71.12 10.14 8.42 18.45 8.31 8.3 18.55 8.3 10.25 0 18.22-8.3ZM623.87-344q15.9 0 27.01-10.98Q662-365.96 662-381.87q0-15.9-10.98-27.01Q640.04-420 624.13-420q-15.9 0-27.01 10.98Q586-398.04 586-382.14q0 15.91 10.98 27.02Q607.96-344 623.87-344Zm107.82 132H324.31Q298-212 279-231q-19-19-19-45.31v-551.38Q260-854 279-873q19-19 45.31-19h282.77q12.85 0 24.5 4.62 11.65 4.61 21.5 14.46l123.84 123.84q9.85 9.85 14.46 21.5 4.62 11.65 4.62 24.5v426.77Q796-250 777-231q-19 19-45.31 19ZM744-692 596-840v105.54q0 17.69 12.39 30.07Q620.77-692 638.46-692H744ZM180.31-68Q154-68 135-87q-19-19-19-45.31V-626q0-11.05 7.42-18.52 7.42-7.48 18.38-7.48 10.97 0 18.58 7.48Q168-637.05 168-626v493.69q0 4.62 3.85 8.46 3.84 3.85 8.46 3.85H578q11.05 0 18.52 7.42Q604-105.16 604-94.2q0 10.97-7.48 18.58Q589.05-68 578-68H180.31Z"/></svg>
